storage/app/icons/phosphoricons/bold/onigiri-bold.svg

<svg xmlns="http://www.w3.org/2000/svg" fill="currentColor" viewBox="0 0 256 256"><path d="m235 144.51-55.87-95.86a3 3 0 0 0-.17-.29 60 60 0 0 0-101.96 0 3 3 0 0 0-.17.29L21 144.51A60 60 0 0 0 72.1 236h111.8a60 60 0 0 0 51.1-91.49M156 212h-56v-40h56Zm59.36-18.5A35.55 35.55 0 0 1 183.9 212H180v-44a20 20 0 0 0-20-20H96a20 20 0 0 0-20 20v44h-3.9a36 36 0 0 1-30.58-55l.17-.28 55.82-95.84a36 36 0 0 1 61 0l55.82 95.85.17.28a35.58 35.58 0 0 1 .85 36.49Z"/></svg>

<svg xmlns="http://www.w3.org/2000/svg" viewBox="0 0 256 256" fill="currentColor"><path d="M235,144.51,179.13,48.65a2.75,2.75,0,0,0-.17-.29A60,60,0,0,0,77,48.36a2.75,2.75,0,0,0-.17.29L21,144.51A60,60,0,0,0,72.1,236H183.9A60,60,0,0,0,235,144.51ZM156,212H100V172h56Zm59.36-18.5A35.55,35.55,0,0,1,183.9,212H180V168a20,20,0,0,0-20-20H96a20,20,0,0,0-20,20v44H72.1a36,36,0,0,1-30.58-55l.17-.28L97.51,60.88a36,36,0,0,1,61,0l55.82,95.85.17.28A35.58,35.58,0,0,1,215.35,193.5Z"/></svg>
